X:53
T:A Fig for a Kiss
R:slip jig
Z:id:hn-slipjig-53
M:9/8
K:Edor
G2B E2B BAG | F2A D2A AGF | G2B E2B BAG |1 B/c/dB AGF E2F :|
[2 B/c/dB AGF E3 |: g2e g2e edB | f2d dcd fed |1 g2e g2e edB |
dBG GBd e2f :|2 gfe fed ecA | B/c/dB AGF E2F ||
P:variations
|: GAB E2B BAG | FGA D2A AGF | GAB E2B BAG |1 B/c/dB AGF DEF :|
[2 B/c/dB AGF E2f |: g2e g2e edB | ~f3 dB/c/d fed |1 g2e g2e edB |
dBA GBd e2f :|2 gfe fed edB | d2B AGF E2F ||
<end>
<start>
